X: 46
T:German Minuet,(melody). BC.46a
M:3/4
L:1/4
Q:100
S:Benjamin Cooke MS.circa 1770, F.Kidson Coll.
R:Minuet
O:England
A:Uncertain, probably northern
Z:vmp.John Bagnall
K:D
a | a2 g | f/e/ d "slurred"{g}{a}b | a2 g | f/e/ d A |!
 B g B | A f A | G G F| E2||!
A | "tr" A2 =c | B/A/ G>B | B2 d | c/B/ A a |!
 a g f | e f g | f/e/ d c|d2 |]
